X: 20533
T: John McFadden's Favourite
R: reel
M: 4/4
K: Gmajor
GABG EGDB,|G,A,B,D EB,DB,|DGGF G2eg|gedc (3BAG FD|
(3GFE FD EB,DB,|G,A,B,D EB,DB,|DGGF G2eg|gedc BGG2||
~g3a (3bag fd|gabg eaa2|g2dg (3bag fd|gedc BGG2|
~g3a (3bag fd|gabg eaa2|gbaf gfed|(3Bcd gd edBA||

